assets/si/si-amazonalexa.svg

<svg xmlns="http://www.w3.org/2000/svg" width="100%" height="100%" viewBox="-3.36 -3.36 30.72 30.72"><path d="M12 0C5.37 0 0 5.37 0 12c0 6.09 4.53 11.11 10.4 11.9v-2.4a1.59 1.59 0 00-1.08-1.53A8.41 8.41 0 013.6 11.8a8.37 8.37 0 018.49-8.2 8.4 8.4 0 018.31 8.71l-.01.07a8.68 8.68 0 01-.03.38c0 .07-.01.14-.02.2 0 .08-.01.16-.02.23l-.02.1c-1.03 6.78-9.85 10.58-9.9 10.61.52.07 1.06.1 1.6.1 6.63 0 12-5.37 12-12S18.63 0 12 0z"/></svg>

<svg xmlns="http://www.w3.org/2000/svg" width="100%" height="100%" viewBox="-3.36 -3.36 30.72 30.72"><path d="M12 0C5.37 0 0 5.37 0 12C0 18.09 4.53 23.11 10.4 23.9V21.5A1.59 1.59 0 0 0 9.32 19.97A8.41 8.41 0 0 1 3.6 11.8A8.37 8.37 0 0 1 12.09 3.6A8.4 8.4 0 0 1 20.4 12.31L20.39 12.38A8.68 8.68 0 0 1 20.36 12.76C20.36 12.83 20.35 12.9 20.34 12.96C20.34 13.04 20.33 13.12 20.32 13.19L20.3 13.29C19.27 20.07 10.45 23.87 10.4 23.9C10.92 23.97 11.46 24 12 24C18.63 24 24 18.63 24 12S18.63 0 12 0Z"/></svg>
